svg/icons redes sociales/youtube.svg

<?xml version="1.0"?><svg xmlns="http://www.w3.org/2000/svg"  viewBox="0 0 30 30" width="90px" height="90px">    <path d="M 15 4 C 10.814 4 5.3808594 5.0488281 5.3808594 5.0488281 L 5.3671875 5.0644531 C 3.4606632 5.3693645 2 7.0076245 2 9 L 2 15 L 2 15.001953 L 2 21 L 2 21.001953 A 4 4 0 0 0 5.3769531 24.945312 L 5.3808594 24.951172 C 5.3808594 24.951172 10.814 26.001953 15 26.001953 C 19.186 26.001953 24.619141 24.951172 24.619141 24.951172 L 24.621094 24.949219 A 4 4 0 0 0 28 21.001953 L 28 21 L 28 15.001953 L 28 15 L 28 9 A 4 4 0 0 0 24.623047 5.0546875 L 24.619141 5.0488281 C 24.619141 5.0488281 19.186 4 15 4 z M 12 10.398438 L 20 15 L 12 19.601562 L 12 10.398438 z"/></svg>

<svg xmlns="http://www.w3.org/2000/svg" xmlns:xlink="http://www.w3.org/1999/xlink" viewBox="0,0,256,256" width="30px" height="30px" fill-rule="nonzero"><g transform="translate(-19.2,-19.2) scale(1.15,1.15)"><g fill="#000000" fill-rule="nonzero" stroke="none" stroke-width="1" stroke-linecap="butt" stroke-linejoin="miter" stroke-miterlimit="10" stroke-dasharray="" stroke-dashoffset="0" font-family="none" font-weight="none" font-size="none" text-anchor="none" style="mix-blend-mode: normal"><g transform="scale(8.53333,8.53333)"><path d="M15,4c-4.186,0 -9.61914,1.04883 -9.61914,1.04883l-0.01367,0.01563c-1.90652,0.30491 -3.36719,1.94317 -3.36719,3.93555v6v0.00195v5.99805v0.00195c0.00384,1.96564 1.4353,3.63719 3.37695,3.94336l0.00391,0.00586c0,0 5.43314,1.05078 9.61914,1.05078c4.186,0 9.61914,-1.05078 9.61914,-1.05078l0.00195,-0.00195c1.94389,-0.30554 3.37683,-1.97951 3.37891,-3.94727v-0.00195v-5.99805v-0.00195v-6c-0.00288,-1.96638 -1.43457,-3.63903 -3.37695,-3.94531l-0.00391,-0.00586c0,0 -5.43314,-1.04883 -9.61914,-1.04883zM12,10.39844l8,4.60156l-8,4.60156z"></path></g></g></g></svg>
